assets/icons/assembly.svg

<svg xmlns="http://www.w3.org/2000/svg" viewBox="0 0 16 16"><path fill="#ff6e40" d="M2 1a1 1 0 0 0-1 1v12a1 1 0 0 0 1 1h2v-1H2V2h2V1Zm10 0v1h2v12h-2v1h2a1 1 0 0 0 1-1V2a1 1 0 0 0-1-1ZM6 3c0 1 0 1-1 1v1h1v2h1V3Zm3 0a1 1 0 0 0-1 1v2a1 1 0 0 0 1 1h1a1 1 0 0 0 1-1V4a1 1 0 0 0-1-1Zm0 1h1v2H9ZM6 9a1 1 0 0 0-1 1v2a1 1 0 0 0 1 1h1a1 1 0 0 0 1-1v-2a1 1 0 0 0-1-1Zm4 0c0 1 0 1-1 1v1h1v2h1V9Zm-4 1h1v2H6Z"/></svg>

<svg xmlns="http://www.w3.org/2000/svg" viewBox="0 0 16 16">
	<path
		stroke="none" fill="#FF6E40"
		d="M 2,1 A 1,1 0 0 0 1,2 v 12 a 1,1 0 0 0 1,1 H 4 V 14 H 2 V 13 3 2 H 4 V 1 Z m 10,0 v 1 h 2 v 1 10 1 h -2 v 1 h 2 a 1,1 0 0 0 1,-1 V 2 A 1,1 0 0 0 14,1 Z M 6,3 C 6,4 6,4 5,4 V 5 H 6 V 7 H 7 V 3 Z M 9,3 A 1,1 0 0 0 8,4 v 2 a 1,1 0 0 0 1,1 h 1 A 1,1 0 0 0 11,6 V 4 A 1,1 0 0 0 10,3 Z m 0,1 h 1 V 6 H 9 Z M 6,9 a 1,1 0 0 0 -1,1 v 2 a 1,1 0 0 0 1,1 H 7 A 1,1 0 0 0 8,12 V 10 A 1,1 0 0 0 7,9 Z m 4,0 c 0,1 0,1 -1,1 v 1 h 1 v 2 h 1 V 9 Z m -4,1 h 1 v 2 H 6 Z"
	/>
</svg>
